X:973
T:Polska efter Jularpa-Sven
T:(SvL Skåne nr. 18)
R:Polska
B:Svenska Låtar Skåne
Z:Patrik Månsson, 2009-01-09
O:Glimåkra, Skåne
S:efter [[Personer.SvenAkesson|Sven Åkesson]]
M:3/4
L:1/16
K:Bb
|: dced cBdc BAcB | AGBd (gd)bg d4 | dcBd (gd)bg d4 |
cBAc (^fc)af c4 | BAG^F GABc d^fga | bdc^F g4 FineG,4 "Fine":|
BB,DF Bdfa bfdB | cdef gecA B2a2 |
bfdB gecA fdBG | ecAB G4 ^F4 | GBdg b2d2 c4 |
^FAc^f a2c2 B2A2 | G2(ba) g=fed cBAG | G^FAF D2(CB) A,2G,2 "D.C. al Fine"|
(:musicend:)

(:music:)
